COLOR/apps 16/16/ebook-reader-app.svg

<svg height="16" viewBox="0 0 4.233125 4.233125" width="16" xmlns="http://www.w3.org/2000/svg" xmlns:xlink="http://www.w3.org/1999/xlink"><linearGradient id="a" gradientTransform="matrix(0 -.01021733 .01033057 0 -1.197959 4.641993)" gradientUnits="userSpaceOnUse" x1="441.37933" x2="52.9655" y1="240.28154" y2="401.42957"><stop offset="0" stop-color="#bc1938"/><stop offset="1" stop-color="#da1636"/></linearGradient><path d="m1.2845041.1322735c-.80473289 0-.89132146.0817496-.88737672.8792492v1.1050281 1.1050255c-.003942.7975022.0826438.8792518.88737672.8792518h1.6645336c.8047356 0 .8873794-.081739.8873794-.8792518v-1.1050255-1.1050281c0-.7975102-.082646-.8792492-.8873794-.8792492z" fill="url(#a)"/><path d="m1.0584288.13640345c-.59166651.02158893-.66495778.16150164-.66142577.87535735v1.1047874 1.1047873c-.003519.7138583.0697593.8537631.66142577.8753573z" opacity=".15"/><path d="m2.6158802 1.893571c-.085329 0-.1587052.00595-.2201411.017911-.059727.011959-.1041031.024737-.1331132.038394l.023018.1459132c.022171-.00852.057166-.019605.1049498-.033259.047784-.013652.1203345-.020531.2176117-.020531.068259 0 .1228506.011112.163806.033301.042665.020478.075104.048655.097288.08449.023891.03413.039233.073381.046057.1177497.00685.042665.010239.086999.010239.1330762v.081924c-.00683-.00341-.019631-.00683-.038392-.010239-.017065-.00513-.038392-.00939-.063992-.012779-.023891-.00513-.04948-.00852-.076786-.010239-.02561-.00341-.050327-.00513-.074225-.00513-.080207 0-.1544349.00767-.2226994.023044-.068262.015371-.1271578.040127-.176643.07426-.049491.032426-.08788.07422-.1151833.1254142-.027306.051197-.040963.1126355-.040963.1843076 0 .07509.011958.1391111.035825.1920145.025584.051194.059721.093848.1023835.1279806.044371.032423.095592.056293.1536201.071651.059729.015372.1245676.023071.1945385.023071.05461 0 .1075187-.00265.1587131-.0077.052904-.00341.1006849-.00852.1433495-.015372.042662-.00683.080186-.012779.1126091-.017885.032428-.00685.057197-.012805.074262-.017938v-.8344829c0-.069971-.00855-.1348515-.025584-.1945809-.0170657-.0597268-.0443826-.1109132-.0819225-.1535751-.0375451-.0443685-.0870516-.0784928-.1484875-.1023861-.059727-.02561-.1331-.038394-.220133-.038394zm.051186.7039343c.071675 0 .1279859.00513.168944.015372.040955.00852.070812.017065.089584.025584v.4659082c-.03413.00685-.075921.012779-.1254091.017911-.047784.00341-.1040978.00513-.168944.00513-.052906 0-.1006849-.00429-.1433468-.012805-.040955-.010236-.076802-.025608-.107524-.046091-.029008-.020478-.052057-.047755-.069122-.081884-.015372-.034132-.023044-.075966-.023044-.1254513 0-.056319.011959-.1015553.035828-.1356823.023891-.034132.054607-.060547.09215-.079321.037548-.020478.078516-.033317.1228903-.038434.044368-.00685.08702-.010212.1279779-.010212z" fill="#fa9381"/><path d="m4.8554688.5c-3.0416599 0-3.3684257.30989869-3.3535157 3.3242188v.5c-.01491-3.0143201.3118558-3.3242188 3.3535157-3.3242188h6.2910152c3.041662 0 3.353516.3098586 3.353516 3.3242188v-.5c0-3.01436017-.311854-3.3242188-3.353516-3.3242188z" fill="#fff" opacity=".3" transform="scale(.26457031)"/><path d="m2.9489056 4.1008398c.8047329 0 .8911854-.08199.8872407-.8794895v-.1322851c.0039447.7974996-.0825078.8794895-.8872407.8794895h-1.6644159c-.80473343 0-.88724071-.081979-.88724071-.8794895v.1322851c0 .7975102.0825073.8794895.88724071.8794895z" fill="#080000" opacity=".2"/></svg>

<?xml version="1.0" encoding="UTF-8" standalone="no"?>
<svg
   xmlns:dc="http://purl.org/dc/elements/1.1/"
   xmlns:cc="http://creativecommons.org/ns#"
   xmlns:rdf="http://www.w3.org/1999/02/22-rdf-syntax-ns#"
   xmlns:svg="http://www.w3.org/2000/svg"
   xmlns="http://www.w3.org/2000/svg"
   xmlns:xlink="http://www.w3.org/1999/xlink"
   xmlns:sodipodi="http://sodipodi.sourceforge.net/DTD/sodipodi-0.dtd"
   xmlns:inkscape="http://www.inkscape.org/namespaces/inkscape"
   height="16"
   viewBox="0 0 4.233125 4.233125"
   width="16"
   version="1.1"
   id="svg33"
   sodipodi:docname="ebook-reader-app.svg"
   inkscape:version="0.92.5 (2060ec1f9f, 2020-04-08)">
  <metadata
     id="metadata39">
    <rdf:RDF>
      <cc:Work
         rdf:about="">
        <dc:format>image/svg+xml</dc:format>
        <dc:type
           rdf:resource="http://purl.org/dc/dcmitype/StillImage" />
      </cc:Work>
    </rdf:RDF>
  </metadata>
  <defs
     id="defs37">
    <linearGradient
       inkscape:collect="always"
       xlink:href="#linearGradient13996"
       id="linearGradient920"
       gradientUnits="userSpaceOnUse"
       gradientTransform="matrix(0,-0.01021733,0.01033057,0,-1.1979591,4.6419934)"
       x1="441.37933"
       y1="240.28154"
       x2="52.9655"
       y2="401.42957" />
    <linearGradient
       inkscape:collect="always"
       id="linearGradient13996">
      <stop
         style="stop-color:#bc1938;stop-opacity:1"
         offset="0"
         id="stop13992" />
      <stop
         style="stop-color:#da1636;stop-opacity:1"
         offset="1"
         id="stop13994" />
    </linearGradient>
  </defs>
  <sodipodi:namedview
     pagecolor="#ffffff"
     bordercolor="#666666"
     borderopacity="1"
     objecttolerance="10"
     gridtolerance="10"
     guidetolerance="10"
     inkscape:pageopacity="0"
     inkscape:pageshadow="2"
     inkscape:window-width="1920"
     inkscape:window-height="1016"
     id="namedview35"
     showgrid="false"
     inkscape:zoom="14.75"
     inkscape:cx="-4.9152542"
     inkscape:cy="8"
     inkscape:window-x="0"
     inkscape:window-y="27"
     inkscape:window-maximized="1"
     inkscape:current-layer="svg33" />
  <linearGradient
     id="a"
     gradientUnits="userSpaceOnUse"
     x1="328"
     x2="328"
     y1="237"
     y2="251">
    <stop
       offset="0"
       stop-color="#fff"
       id="stop2" />
    <stop
       offset=".125"
       stop-color="#fff"
       stop-opacity=".098039"
       id="stop4" />
    <stop
       offset=".92500001"
       stop-color="#fff"
       stop-opacity=".098039"
       id="stop6" />
    <stop
       offset="1"
       stop-color="#fff"
       stop-opacity=".498039"
       id="stop8" />
  </linearGradient>
  <clipPath
     id="b">
    <path
       d="m325.09646 237c-2.80769 0-3.10979.28839-3.09603 3.10176v3.89824 3.89824c-.0138 2.81337.28834 3.10176 3.09603 3.10176h5.8075c2.8077 0 3.09604-.28835 3.09604-3.10176v-3.89824-3.89824c0-2.8134-.28835-3.10176-3.09604-3.10176z"
       id="path11" />
  </clipPath>
  <linearGradient
     id="c"
     gradientTransform="matrix(0 -.01052359 .01052329 0 -1.286752 4.717014)"
     gradientUnits="userSpaceOnUse"
     x1="459.03448"
     x2="35.310345"
     y1="419.23337"
     y2="207.36522">
    <stop
       offset="0"
       stop-color="#f2f2f2"
       id="stop14" />
    <stop
       offset="1"
       stop-color="#f9f9f9"
       id="stop16" />
  </linearGradient>
  <path
     style="color:#000000;display:inline;overflow:visible;visibility:visible;fill:url(#linearGradient920);fill-opacity:1;fill-rule:nonzero;stroke:none;stroke-width:0.26457033;marker:none;enable-background:accumulate"
     d="m 1.2845041,0.1322735 c -0.80473289,0 -0.89132146,0.0817496 -0.88737672,0.8792492 v 1.1050281 1.1050255 c -0.003942,0.7975022 0.0826438,0.8792518 0.88737672,0.8792518 h 1.6645336 c 0.8047356,0 0.8873794,-0.081739 0.8873794,-0.8792518 V 2.1165508 1.0115227 c 0,-0.7975102 -0.082646,-0.8792492 -0.8873794,-0.8792492 z"
     id="path918"
     inkscape:connector-curvature="0"
     sodipodi:nodetypes="scccssscsss" />
  <path
     inkscape:connector-curvature="0"
     style="display:inline;opacity:0.15;vector-effect:none;fill:#000000;fill-opacity:1;stroke:none;stroke-width:0.52914065;stroke-linecap:round;stroke-linejoin:round;stroke-miterlimit:4;stroke-dasharray:none;stroke-dashoffset:0;stroke-opacity:1;enable-background:new"
     d="M 1.0584288,0.13640345 C 0.46676229,0.15799238 0.39347102,0.29790509 0.39700303,1.0117608 v 1.1047874 1.1047873 c -0.003519,0.7138583 0.0697593,0.8537631 0.66142577,0.8753573 z"
     id="rect17535" />
  <path
     inkscape:connector-curvature="0"
     style="font-style:normal;font-weight:normal;font-size:118.51851654px;line-height:1000%;font-family:sans-serif;letter-spacing:0px;word-spacing:0px;display:inline;fill:#fa9381;fill-opacity:1;stroke:none;stroke-width:0.06183171px;stroke-linecap:butt;stroke-linejoin:miter;stroke-opacity:1;enable-background:new"
     d="m 2.6158802,1.893571 c -0.085329,0 -0.1587052,0.00595 -0.2201411,0.017911 C 2.3360121,1.923441 2.291636,1.936219 2.2626259,1.949876 l 0.023018,0.1459132 c 0.022171,-0.00852 0.057166,-0.019605 0.1049498,-0.033259 0.047784,-0.013652 0.1203345,-0.020531 0.2176117,-0.020531 0.068259,0 0.1228506,0.011112 0.163806,0.033301 0.042665,0.020478 0.075104,0.048655 0.097288,0.08449 0.023891,0.03413 0.039233,0.073381 0.046057,0.1177497 0.00685,0.042665 0.010239,0.086999 0.010239,0.1330762 v 0.081924 c -0.00683,-0.00341 -0.019631,-0.00683 -0.038392,-0.010239 -0.017065,-0.00513 -0.038392,-0.00939 -0.063992,-0.012779 -0.023891,-0.00513 -0.04948,-0.00852 -0.076786,-0.010239 -0.02561,-0.00341 -0.050327,-0.00513 -0.074225,-0.00513 -0.080207,0 -0.1544349,0.00767 -0.2226994,0.023044 -0.068262,0.015371 -0.1271578,0.040127 -0.176643,0.07426 -0.049491,0.032426 -0.08788,0.07422 -0.1151833,0.1254142 -0.027306,0.051197 -0.040963,0.1126355 -0.040963,0.1843076 0,0.07509 0.011958,0.1391111 0.035825,0.1920145 0.025584,0.051194 0.059721,0.093848 0.1023835,0.1279806 0.044371,0.032423 0.095592,0.056293 0.1536201,0.071651 0.059729,0.015372 0.1245676,0.023071 0.1945385,0.023071 0.05461,0 0.1075187,-0.00265 0.1587131,-0.0077 0.052904,-0.00341 0.1006849,-0.00852 0.1433495,-0.015372 0.042662,-0.00683 0.080186,-0.012779 0.1126091,-0.017885 0.032428,-0.00685 0.057197,-0.012805 0.074262,-0.017938 V 2.3825181 c 0,-0.069971 -0.00855,-0.1348515 -0.025584,-0.1945809 C 3.0493628,2.1282104 3.0220459,2.077024 2.984506,2.0343621 2.9469609,1.9899936 2.8974544,1.9558693 2.8360185,1.931976 2.7762915,1.906366 2.7029185,1.893582 2.6158855,1.893582 Z m 0.051186,0.7039343 c 0.071675,0 0.1279859,0.00513 0.168944,0.015372 0.040955,0.00852 0.070812,0.017065 0.089584,0.025584 v 0.4659082 c -0.03413,0.00685 -0.075921,0.012779 -0.1254091,0.017911 -0.047784,0.00341 -0.1040978,0.00513 -0.168944,0.00513 -0.052906,0 -0.1006849,-0.00429 -0.1433468,-0.012805 -0.040955,-0.010236 -0.076802,-0.025608 -0.107524,-0.046091 -0.029008,-0.020478 -0.052057,-0.047755 -0.069122,-0.081884 -0.015372,-0.034132 -0.023044,-0.075966 -0.023044,-0.1254513 0,-0.056319 0.011959,-0.1015553 0.035828,-0.1356823 0.023891,-0.034132 0.054607,-0.060547 0.09215,-0.079321 0.037548,-0.020478 0.078516,-0.033317 0.1228903,-0.038434 0.044368,-0.00685 0.08702,-0.010212 0.1279779,-0.010212 z"
     id="path918-6"
     sodipodi:nodetypes="cccccscccsccccscccscccsccccsccccccccccscccsccccc" />
  <path
     style="color:#000000;display:inline;overflow:visible;visibility:visible;fill:#ffffff;fill-opacity:1;fill-rule:nonzero;stroke:none;stroke-width:1;marker:none;enable-background:accumulate;opacity:0.3"
     d="M 4.8554688 0.5 C 1.8138089 0.5 1.4870431 0.80989869 1.5019531 3.8242188 L 1.5019531 4.3242188 C 1.4870431 1.3098987 1.8138089 1 4.8554688 1 L 11.146484 1 C 14.188146 1 14.5 1.3098586 14.5 4.3242188 L 14.5 3.8242188 C 14.5 0.80985863 14.188146 0.5 11.146484 0.5 L 4.8554688 0.5 z "
     transform="scale(0.26457031)"
     id="path79" />
  <path
     id="path893"
     d="m 2.9489056,4.1008398 c 0.8047329,0 0.8911854,-0.08199 0.8872407,-0.8794895 V 3.0890652 C 3.840091,3.8865648 3.7536385,3.9685547 2.9489056,3.9685547 H 1.2844897 c -0.80473343,0 -0.88724071,-0.081979 -0.88724071,-0.8794895 v 0.1322851 c 0,0.7975102 0.0825073,0.8794895 0.88724071,0.8794895 z"
     style="color:#000000;display:inline;overflow:visible;visibility:visible;opacity:0.2;fill:#080000;fill-opacity:1;fill-rule:nonzero;stroke:none;stroke-width:0.2645703;marker:none;enable-background:accumulate"
     inkscape:connector-curvature="0" />
</svg>
